X: 3
T: Blacksmiths Quadrille
L:1/8
M:6/8
S: Viola "Mom" Ruth - Pioneer Western Folk Tunes (1948)
Z:AK/Fiddler's Companion
K:D
[FA][FA][FA] [GB][GB][GB] | [FA][FA][FA] f2 (f/g/) | [ca][ca][ca] [ce][ce][ce] |
[ca][ca][ca] [d3f3] | [FA][FA][FA] [GB][GB][GB] | [FA][FA][FA] f(fg) |
[ca][ca][ca] e(fe) | [F3d3] [Fd](ef) :: (g3 g)(fe) | (d3 d)(=cB) | (AG=c) (ABc) |
f2e d2(ef) | (g3 g)fe | (d3 d)(cB) | ABc def |1 (g3 g)(ef) :|2 g3 g3 ||

%%sep 1 1 500
